assets/Boy/Default/Flat/boy_flat_default.svg

<svg width="32" height="32" viewBox="0 0 32 32" fill="none" xmlns="http://www.w3.org/2000/svg">
<path d="M26.3447 5.9263C25.7947 5.70619 25.3527 5.27598 25.1071 4.72571C24.4393 3.16495 22.9267 2.05441 21.1587 1.99438C20.206 1.96436 19.3122 2.2445 18.5756 2.73474C18.1336 3.03489 17.5541 3.03489 17.1121 2.73474C16.3755 2.2445 15.4915 1.96436 14.5388 1.99438C13.3405 2.0344 12.2601 2.55465 11.4744 3.37505C11.111 3.75524 10.6297 4.00536 10.1189 4.12542C9.08764 4.34553 8.14474 4.87578 7.39828 5.66617L7.38846 5.67618C5.8366 7.31698 5.00174 9.46803 5.01156 11.7391V11.7591C5.02138 11.8392 5.01147 17.9922 5.01147 17.9922H6.00599L26 18.0117L27 17.9961C27 17.9961 27.044 16.1053 27.0715 15.531C27.0953 15.0351 27.1108 14.2604 27.1108 14.2604C27.1305 13.59 27.4055 12.9497 27.8475 12.4495C28.4662 11.7491 28.8591 10.8287 28.8787 9.8182C28.918 8.04733 27.8573 6.5366 26.3447 5.9263Z" fill="#F1A11E"/>
<path d="M26.1217 14.5188L26 18.0117C26.5402 18.0117 26.9804 17.5464 27 16.9961C27 16.9961 27.044 16.1053 27.0715 15.531C27.0823 15.3062 27.0914 15.0241 27.0981 14.7828C28.2309 15.2907 29.02 16.4282 29.02 17.75C29.02 19.5449 27.5649 21 25.77 21C23.9751 21 22.52 19.5449 22.52 17.75C22.52 15.9551 23.9751 14.5 25.77 14.5C25.8888 14.5 26.0062 14.5064 26.1217 14.5188Z" fill="#FDBB11"/>
<path d="M5.01485 14.7429C5.01354 15.918 5.01147 16.9922 5.01147 16.9922C5.03112 17.5425 5.46578 17.9922 6.00599 17.9922V14.509C6.08654 14.503 6.16792 14.5 6.25 14.5C8.04493 14.5 9.5 15.9551 9.5 17.75C9.5 19.5449 8.04493 21 6.25 21C4.45507 21 3 19.5449 3 17.75C3 16.3923 3.83249 15.2291 5.01485 14.7429Z" fill="#FDBB11"/>
<path d="M26.0462 16.6844L26 18.0117C26.0064 18.0117 26.0128 18.0117 26.0193 18.0115L25.9744 20.2162C25.7354 26.0685 21.3433 30 16.005 30C10.6667 30 6.27451 26.0685 6.03548 20.2162L5.96002 17.9911C5.97525 17.9918 5.99056 17.9922 6.00597 17.9922V13.9922C5.9765 13.1318 6.36696 12.4695 6.95627 11.8592C7.5947 11.1989 8.02686 10.3385 8.18401 9.408C8.19383 9.33797 8.24294 9.27794 8.32152 9.25793C8.41973 9.22792 8.50813 9.28794 8.5376 9.36798C9.14655 10.9087 10.6198 12.0093 12.3485 12.0093C12.7905 12.0093 13.1539 11.6391 13.1539 11.1889V9.45803C13.1539 9.34797 13.2226 9.26793 13.311 9.24792H13.4387C13.478 9.25793 13.5173 9.28794 13.5468 9.32796C14.7647 10.9588 16.6996 12.0093 18.8604 12.0093H23.9383C25.1759 12.0093 26.1679 13.0498 26.1286 14.3204L26.0964 15.2447L26.0584 16.0852L26.0462 16.6844Z" fill="#FFC83D"/>
<path d="M16.002 23.1739C14.8936 23.1739 13.8651 22.9029 12.9864 22.4412C12.6869 22.2806 12.3673 22.6218 12.5571 22.9129C13.286 24.0472 14.5641 24.8 16.002 24.8C17.4398 24.8 18.7179 24.0472 19.4468 22.9129C19.6266 22.6319 19.317 22.2906 19.0175 22.4412C18.1388 22.9129 17.1103 23.1739 16.002 23.1739Z" fill="#990839"/>
<path d="M15.9934 22C16.6734 22 17.2634 21.6548 17.6234 21.1269C17.9434 20.6497 17.6034 20 17.0334 20H14.9634C14.3934 20 14.0534 20.6497 14.3734 21.1269C14.7234 21.6548 15.3234 22 15.9934 22Z" fill="#ED9200"/>
<path d="M8.19004 17.87C8.53004 16.53 9.75004 15.53 11.2 15.53C12.71 15.53 13.96 16.6 14.24 18.02C14.3 18.33 14.05 18.62 13.73 18.62H8.79004C8.39004 18.62 8.09004 18.25 8.19004 17.87Z" fill="white"/>
<path d="M23.83 17.87C23.49 16.53 22.27 15.53 20.82 15.53C19.31 15.53 18.06 16.6 17.78 18.02C17.72 18.33 17.97 18.62 18.29 18.62H23.23C23.63 18.62 23.93 18.25 23.83 17.87Z" fill="white"/>
<path d="M9.67999 18.1C9.67999 17.01 10.57 16.12 11.66 16.12C12.75 16.12 13.64 17.01 13.64 18.1C13.64 18.29 13.62 18.46 13.57 18.63H9.74999C9.70999 18.46 9.67999 18.28 9.67999 18.1Z" fill="#7D4533"/>
<path d="M22.34 18.1C22.34 17.01 21.45 16.12 20.36 16.12C19.27 16.12 18.38 17.01 18.38 18.1C18.38 18.29 18.4 18.46 18.45 18.63H22.27C22.31 18.46 22.34 18.28 22.34 18.1Z" fill="#7D4533"/>
<path d="M11.66 16.97C12.28 16.97 12.79 17.47 12.79 18.1C12.79 18.29 12.74 18.47 12.66 18.63H10.66C10.58 18.47 10.53 18.29 10.53 18.1C10.53 17.48 11.03 16.97 11.66 16.97Z" fill="black"/>
<path d="M20.36 16.97C19.74 16.97 19.23 17.47 19.23 18.1C19.23 18.29 19.28 18.47 19.36 18.63H21.36C21.44 18.47 21.49 18.29 21.49 18.1C21.49 17.48 20.99 16.97 20.36 16.97Z" fill="black"/>
<path d="M11.33 17.32C11.33 17.5133 11.1733 17.67 10.98 17.67C10.7867 17.67 10.63 17.5133 10.63 17.32C10.63 17.1267 10.7867 16.97 10.98 16.97C11.1733 16.97 11.33 17.1267 11.33 17.32Z" fill="white"/>
<path d="M20.1 17.32C20.1 17.5133 19.9433 17.67 19.75 17.67C19.5567 17.67 19.4 17.5133 19.4 17.32C19.4 17.1267 19.5567 16.97 19.75 16.97C19.9433 16.97 20.1 17.1267 20.1 17.32Z" fill="white"/>
<path d="M9.60768 14.5633C10.129 14.3777 10.8757 14.2368 11.8631 14.33C12.138 14.3559 12.3819 14.1541 12.4078 13.8792C12.4337 13.6042 12.2319 13.3603 11.957 13.3344C10.8243 13.2276 9.93106 13.3867 9.27235 13.6212C9.0122 13.7137 8.87637 13.9997 8.96897 14.2599C9.06156 14.52 9.34752 14.6559 9.60768 14.5633Z" fill="#D37034"/>
<path d="M22.1777 13.6212C21.5189 13.3867 20.6257 13.2276 19.493 13.3344C19.2181 13.3603 19.0163 13.6042 19.0422 13.8792C19.0681 14.1541 19.312 14.3559 19.587 14.33C20.5743 14.2368 21.321 14.3777 21.8423 14.5633C22.1025 14.6559 22.3884 14.52 22.481 14.2599C22.5736 13.9997 22.4378 13.7137 22.1777 13.6212Z" fill="#D37034"/>
</svg>

<svg xmlns="http://www.w3.org/2000/svg" width="32" height="32" fill="none"><path fill="#F1A11E" d="M26.345 5.926c-.55-.22-.992-.65-1.238-1.2-.668-1.561-2.18-2.672-3.948-2.732a4.404 4.404 0 0 0-2.583.74c-.442.3-1.022.3-1.464 0a4.374 4.374 0 0 0-2.573-.74 4.439 4.439 0 0 0-3.065 1.381c-.363.38-.844.63-1.355.75a5.238 5.238 0 0 0-2.72 1.541l-.01.01C5.836 7.317 5.001 9.468 5.011 11.74v.02c.01.08 0 6.233 0 6.233h.994l19.994.02 1-.016s.044-1.89.072-2.465c.023-.496.039-1.27.039-1.27.02-.671.294-1.311.736-1.811a4.093 4.093 0 0 0 1.032-2.632 4.08 4.08 0 0 0-2.534-3.892Z"/><path fill="#FDBB11" d="M26.122 14.519 26 18.012c.54 0 .98-.466 1-1.016l.072-1.465c.01-.225.02-.507.026-.748a3.25 3.25 0 1 1-.976-.264ZM5.015 14.743c-.001 1.175-.004 2.25-.004 2.25.02.55.455 1 .995 1v-3.484a3.25 3.25 0 1 1-.991.234Z"/><path fill="#FFC83D" d="M26.046 16.684 26 18.012h.02l-.046 2.204C25.735 26.068 21.344 30 16.005 30c-5.338 0-9.73-3.931-9.97-9.784l-.075-2.225a1 1 0 0 0 .046.001v-4c-.03-.86.361-1.523.95-2.133a4.647 4.647 0 0 0 1.228-2.451.18.18 0 0 1 .138-.15c.098-.03.186.03.216.11.609 1.54 2.082 2.641 3.81 2.641.442 0 .806-.37.806-.82V9.458c0-.11.069-.19.157-.21h.128c.039.01.078.04.108.08a6.63 6.63 0 0 0 5.313 2.681h5.078c1.238 0 2.23 1.04 2.19 2.311l-.032.925-.038.84-.012.6Z"/><path fill="#990839" d="M16.002 23.174a6.473 6.473 0 0 1-3.016-.733c-.3-.16-.619.18-.429.472a4.1 4.1 0 0 0 3.445 1.887 4.1 4.1 0 0 0 3.445-1.887c.18-.281-.13-.622-.43-.472a6.354 6.354 0 0 1-3.015.733Z"/><path fill="#ED9200" d="M15.993 22c.68 0 1.27-.345 1.63-.873.32-.477-.02-1.127-.59-1.127h-2.07c-.57 0-.91.65-.59 1.127.35.528.95.873 1.62.873Z"/><path fill="#fff" d="M8.19 17.87a3.112 3.112 0 0 1 3.01-2.34c1.51 0 2.76 1.07 3.04 2.49.06.31-.19.6-.51.6H8.79c-.4 0-.7-.37-.6-.75ZM23.83 17.87a3.112 3.112 0 0 0-3.01-2.34c-1.51 0-2.76 1.07-3.04 2.49-.06.31.19.6.51.6h4.94c.4 0 .7-.37.6-.75Z"/><path fill="#7D4533" d="M9.68 18.1c0-1.09.89-1.98 1.98-1.98a1.985 1.985 0 0 1 1.91 2.51H9.75c-.04-.17-.07-.35-.07-.53ZM22.34 18.1c0-1.09-.89-1.98-1.98-1.98a1.985 1.985 0 0 0-1.91 2.51h3.82c.04-.17.07-.35.07-.53Z"/><path fill="#000" d="M11.66 16.97a1.129 1.129 0 0 1 1 1.66h-2a1.129 1.129 0 0 1 1-1.66ZM20.36 16.97a1.129 1.129 0 0 0-1 1.66h2a1.129 1.129 0 0 0-1-1.66Z"/><path fill="#fff" d="M11.33 17.32a.35.35 0 1 1-.7 0 .35.35 0 0 1 .7 0ZM20.1 17.32a.35.35 0 1 1-.7 0 .35.35 0 0 1 .7 0Z"/><path fill="#D37034" d="M9.608 14.563c.521-.185 1.268-.326 2.255-.233a.5.5 0 1 0 .094-.996c-1.133-.106-2.026.053-2.685.287a.5.5 0 1 0 .336.942ZM22.178 13.621c-.66-.234-1.552-.393-2.685-.287a.5.5 0 1 0 .094.996c.987-.093 1.734.048 2.255.233a.5.5 0 0 0 .336-.942Z"/></svg>
